assets/features/channel/southeast-asia1/krungthai.svg

<svg width="80" height="80" viewBox="0 0 80 80" fill="none" xmlns="http://www.w3.org/2000/svg">
<rect width="80" height="80" rx="8" fill="#00A4E4"/>
<path fill-rule="evenodd" clip-rule="evenodd" d="M59.3434 40.5868C59.2873 40.9988 58.8754 43.5834 58.2575 43.7332C58.245 43.7332 58.2388 43.7269 58.2388 43.7145C57.958 43.8456 57.7333 43.677 57.7333 43.677C57.5273 45.2502 56.4414 47.61 54.8687 50.8126C53.7266 53.1536 52.5658 55.4011 53.5019 56.3188C54.2883 57.1054 55.6551 55.3261 55.2244 56.2251C54.7189 57.3301 53.7079 57.5174 52.8279 57.1241C50.3378 55.9442 54.644 46.6174 54.644 46.6174L54.5691 46.6736C54.5691 46.6736 52.2475 45.9806 52.4535 40.5493C52.4535 40.5493 49.5701 41.6918 47.1923 39.7253C51.0492 43.1526 49.2144 49.127 49.2144 49.127C50.8807 58.0792 43.0359 59.6899 43.0359 59.6899C39.1228 60.7387 36.3706 58.7909 36.3706 58.7909L36.3144 58.7347C31.7835 58.0792 29.9674 56.0004 30.1359 53.1162C30.3231 50.0072 32.9069 49.1645 34.2736 49.2394C35.5842 49.3143 36.3518 50.1196 36.4455 50.7002C36.4455 50.7002 33.8055 49.6701 32.0269 51.3557C31.7086 51.6741 31.4839 52.0861 31.3716 52.4794C30.6601 54.9141 32.4388 56.7121 34.7979 57.3301C34.0677 56.4311 34.0115 55.1201 34.2736 54.3335C34.8727 52.5543 36.1833 52.4232 36.745 52.4981C36.745 52.4981 35.2659 53.2473 35.1723 55.3823C35.1161 56.9555 37.0259 57.6672 37.0259 57.6672C43.2793 57.892 44.2341 52.9476 44.2341 52.9476C42.0997 53.2847 41.2011 52.6854 40.6019 52.1048C39.5909 51.9925 38.3365 51.5617 38.1305 50.5691C37.9807 49.8387 38.2241 49.3892 38.5799 49.2394C38.5799 49.2394 38.4862 50.2133 39.7781 50.7751C39.8405 50.8001 39.9092 50.8251 39.9841 50.85C39.9092 50.3256 39.9841 49.8012 40.2275 49.5203C40.4334 49.2768 40.6768 49.2206 40.8828 49.2394C40.8828 49.2394 40.0215 50.9624 41.5006 50.9999C41.8002 51.0186 42.0436 50.9999 42.2683 50.9437L42.418 50.9062C43.8035 50.438 45.0579 48.6401 45.0579 47.1043C45.0579 45.1753 43.7848 43.5834 42.1185 43.3399L41.2759 44.2014C40.7143 44.7071 40.0028 45.0629 40.0028 45.0629C41.1823 45.7746 40.3772 46.6923 39.8905 46.7672C40.1151 45.9806 39.4973 45.7746 39.0854 45.8495C39.0479 45.9432 38.973 46.0181 38.8607 46.093C38.842 46.1117 38.8233 46.1117 38.8045 46.1304C38.7546 46.1554 38.6922 46.1804 38.6173 46.2054C36.9884 46.8983 35.6404 46.5799 35.6404 46.5799C35.6529 46.5799 35.6591 46.5737 35.6591 46.5612C35.4157 46.505 35.2098 46.3739 35.0413 46.1304C34.18 46.4676 34.854 47.2542 35.1723 47.404C34.4047 47.5164 33.8992 47.0669 33.8055 46.4301C33.6745 45.5686 34.4608 45.1566 34.4608 45.1566C35.9025 44.2576 38.0182 44.9505 38.0182 44.9505C39.516 44.6322 40.527 42.9466 40.527 42.9466C38.5986 42.4784 37.5501 41.6543 37.5501 41.6543C37.288 42.0289 36.9697 42.366 36.9697 42.366C36.6889 42.5907 36.4267 42.7593 36.4267 42.7593C36.8761 43.3586 36.5016 44.4823 35.4344 44.2576C35.9774 43.9767 35.734 43.3586 35.3221 43.3399C35.2347 43.4398 35.1411 43.5209 35.0413 43.5834V43.6021H35.0225C34.9476 43.652 34.8727 43.6895 34.7979 43.7145C33.7119 44.1452 32.1579 43.8456 32.1392 43.8643V43.8456C31.9707 43.8268 31.8022 43.7519 31.6337 43.6021C31.0159 43.7332 31.1469 44.37 31.5214 44.576C30.2482 45.0255 29.5555 43.1339 31.2967 42.4597C33.2064 41.6918 34.9664 42.4597 34.9664 42.4597C36.3893 41.9914 36.5578 40.6804 36.5578 40.6804C35.7527 39.9688 35.1536 39.126 34.8353 38.1895C34.8353 38.2083 34.8166 38.227 34.7979 38.227C34.8103 38.2645 34.8166 38.2832 34.8166 38.2832C33.3562 40.9614 30.2857 40.0811 30.2857 40.0811C29.4993 43.0964 26.953 43.1713 26.953 43.1713C26.953 43.1713 27.0279 45.9806 25.2492 46.7485C26.0918 51.2433 28.8253 54.783 26.953 56.2438C26.2415 56.8244 24.8935 56.6371 24.5378 55.3261C24.3693 54.7081 25.4552 56.2438 26.2415 55.476C27.0279 54.7081 25.0246 51.5055 23.9386 49.333C22.5906 46.5987 21.954 43.3212 21.9353 43.2837C21.9353 43.2837 21.9353 43.2899 21.9353 43.3024C21.6732 43.5834 21.4485 43.5646 21.2987 43.4148C21.28 43.4148 21.2426 43.3961 21.2426 43.3961C20.737 42.8904 20.4936 39.9688 20.4936 39.9688C20.4562 39.6316 20.4187 38.9949 20.4187 38.4517C20.4063 38.2769 20.4 38.1084 20.4 37.9461C20.4 37.6651 20.4 37.4779 20.4 37.4779C20.4936 32.6272 22.6468 31.5971 22.6468 31.5971C21.5796 31.5597 22.2349 30.567 22.2349 30.567C23.6578 27.9263 25.605 26.2969 27.1777 25.2107C30.1359 23.1693 31.8397 24.3866 31.6524 25.4167C31.1282 28.6193 34.2736 27.1397 35.0413 25.7913C35.8089 24.4615 36.745 23.3004 36.745 23.3004L36.8948 23.0569C35.9587 23.1693 35.2472 22.6636 35.0974 21.9332C34.9851 21.4837 35.2098 20.9406 35.6778 21.0155C35.9961 21.053 36.1646 21.3713 36.0897 21.5961C36.0148 21.8021 35.8089 21.9519 35.6029 21.8396C35.7714 22.4389 36.5765 22.7198 37.419 22.364L37.6063 22.1392C37.6063 22.1392 37.3442 22.1579 37.1944 22.1392C36.6327 22.0456 36.5765 21.5961 36.614 21.3901C36.6514 21.1279 36.9697 20.8469 37.2318 20.9406C37.7935 21.1466 37.3816 21.7646 37.1195 21.5586C37.1944 21.9894 38.299 21.5399 38.299 21.5399C41.1074 18.4684 43.6537 20.9406 43.6537 20.9406C44.4963 20.772 44.8894 21.5961 44.8894 21.5961C47.4357 21.6335 46.6494 23.0944 46.2 23.3378C45.9754 22.6074 45.1328 22.8134 44.4963 22.9445C43.4291 23.1505 43.0359 23.4689 42.4555 23.9184C41.5942 24.5926 41.0138 25.4354 40.7517 26.5404C40.5083 27.5705 41.4257 28.8253 42.961 29.0126C44.2529 29.1811 45.9005 28.4882 45.7507 26.7277C45.5073 24.1993 48.0349 23.7686 50.3003 24.8174C54.513 26.7652 56.7035 29.331 56.7035 29.331C58.0141 30.7918 56.8159 30.8854 56.8159 30.8854C57.958 32.0091 58.6133 33.1703 58.969 33.9944C58.9815 34.0193 58.994 34.0505 59.0064 34.088C59.0314 34.1504 59.0626 34.2253 59.1 34.3127C59.2873 34.8184 59.3622 35.1555 59.3622 35.1555C59.3809 35.2117 59.3809 35.2679 59.3809 35.3241C59.643 36.4665 59.8115 38.227 59.3434 40.5868ZM42.418 50.9062C42.3931 50.9062 42.3743 50.9125 42.3619 50.9249C42.3868 50.9125 42.4056 50.9062 42.418 50.9062ZM41.07 21.2777C41.0887 21.5586 41.3134 21.8021 41.5193 21.8396C41.9125 21.9145 41.9874 21.6897 42.4555 21.671C42.3619 21.5961 42.2683 21.5024 42.1372 21.4088C42.081 21.6335 41.8938 21.7834 41.6691 21.7459C41.4444 21.7085 41.2572 21.4837 41.2947 21.2215C41.2947 21.2215 41.2947 21.2153 41.2947 21.2028C41.2011 21.2215 41.1636 21.2402 41.07 21.2777ZM41.5381 21.3526C41.5381 21.465 41.613 21.5399 41.7253 21.5399C41.8189 21.5399 41.8938 21.465 41.8938 21.3526C41.8938 21.3152 41.8876 21.2839 41.8751 21.259C41.8002 21.2215 41.7066 21.2028 41.6317 21.1841C41.5755 21.2215 41.5381 21.2777 41.5381 21.3526ZM45.6196 52.648L45.4698 53.2285C44.1405 58.3602 38.973 58.716 38.973 58.716C42.2121 59.5213 45.0767 57.6859 46.3124 56.3937C48.1659 54.4834 47.9225 51.337 47.9225 51.337C47.8102 50.7564 47.5855 51.1497 47.5855 51.1497C46.9115 52.3296 45.6196 52.648 45.6196 52.648Z" fill="white"/>
</svg>

<svg xmlns="http://www.w3.org/2000/svg" width="80" height="80" fill="none" viewBox="0 0 80 80"><rect width="80" height="80" fill="#00a4e4" rx="8"/><path fill="#fff" fill-rule="evenodd" d="M59.343 40.587c-.056.412-.468 2.996-1.086 3.146q-.018 0-.018-.018c-.281.13-.506-.038-.506-.038-.206 1.573-1.292 3.933-2.864 7.136-1.142 2.34-2.303 4.588-1.367 5.506.786.786 2.153-.993 1.722-.094-.505 1.105-1.516 1.292-2.396.9-2.49-1.18 1.816-10.508 1.816-10.508l-.075.057s-2.322-.693-2.116-6.125c0 0-2.883 1.143-5.26-.824 3.856 3.428 2.021 9.402 2.021 9.402 1.667 8.952-6.178 10.563-6.178 10.563-3.913 1.049-6.665-.9-6.665-.9l-.057-.055c-4.53-.656-6.347-2.735-6.178-5.619.187-3.109 2.77-3.952 4.138-3.877 1.31.075 2.078.88 2.172 1.461 0 0-2.64-1.03-4.42.656-.317.318-.542.73-.654 1.123-.712 2.435 1.067 4.233 3.426 4.851-.73-.899-.787-2.21-.524-2.996.599-1.78 1.91-1.91 2.471-1.836 0 0-1.48.75-1.573 2.884-.056 1.574 1.854 2.285 1.854 2.285 6.253.225 7.208-4.72 7.208-4.72-2.134.338-3.033-.262-3.632-.842-1.011-.112-2.265-.543-2.471-1.536-.15-.73.093-1.18.449-1.33 0 0-.094.974 1.198 1.536q.094.038.206.075c-.075-.524 0-1.049.243-1.33a.74.74 0 0 1 .656-.28s-.861 1.722.618 1.76c.3.019.543 0 .767-.056l.15-.038c1.386-.468 2.64-2.266 2.64-3.802 0-1.929-1.273-3.52-2.94-3.764l-.842.861a6.6 6.6 0 0 1-1.273.862c1.18.712.374 1.63-.112 1.704.224-.786-.394-.992-.806-.918a.55.55 0 0 1-.224.244c-.019.019-.038.019-.056.037q-.075.038-.188.075c-1.629.693-2.977.375-2.977.375q.02 0 .02-.019a1 1 0 0 1-.619-.43c-.861.337-.187 1.123.131 1.273-.767.112-1.273-.337-1.366-.974-.131-.861.655-1.273.655-1.273 1.442-.9 3.557-.206 3.557-.206 1.498-.319 2.509-2.004 2.509-2.004-1.928-.469-2.977-1.293-2.977-1.293-.262.375-.58.712-.58.712-.281.225-.543.393-.543.393.45.6.075 1.723-.993 1.499.543-.281.3-.9-.112-.918q-.13.15-.28.243v.02h-.02a1 1 0 0 1-.224.111c-1.086.431-2.64.132-2.659.15v-.018a.9.9 0 0 1-.505-.244c-.618.131-.487.768-.113.974-1.273.45-1.966-1.442-.224-2.116 1.91-.768 3.67 0 3.67 0 1.422-.469 1.59-1.78 1.59-1.78-.804-.711-1.403-1.554-1.722-2.49a.04.04 0 0 1-.037.037l.019.056c-1.46 2.678-4.531 1.798-4.531 1.798-.787 3.015-3.333 3.09-3.333 3.09s.075 2.81-1.704 3.578c.843 4.494 3.576 8.034 1.704 9.495-.712.58-2.06.393-2.415-.918-.169-.618.917.918 1.703.15.787-.768-1.216-3.97-2.302-6.143-1.348-2.734-1.985-6.012-2.004-6.05v.02c-.262.28-.486.262-.636.112-.019 0-.056-.019-.056-.019-.506-.506-.75-3.427-.75-3.427a16 16 0 0 1-.074-1.517 7 7 0 0 1-.019-.506v-.468c.094-4.85 2.247-5.88 2.247-5.88-1.067-.038-.412-1.031-.412-1.031 1.423-2.64 3.37-4.27 4.943-5.356 2.958-2.042 4.662-.824 4.474.206-.524 3.202 2.622 1.723 3.39.374.767-1.33 1.703-2.49 1.703-2.49l.15-.244c-.936.112-1.648-.393-1.798-1.124-.112-.45.113-.992.58-.918.32.038.488.356.413.581-.075.206-.281.356-.487.244.168.599.974.88 1.816.524l.187-.225s-.262.019-.412 0c-.561-.093-.617-.543-.58-.749.037-.262.356-.543.618-.45.562.207.15.825-.112.619.074.43 1.179-.02 1.179-.02 2.808-3.07 5.355-.598 5.355-.598.842-.169 1.235.655 1.235.655 2.547.038 1.76 1.498 1.311 1.742-.225-.73-1.067-.525-1.704-.393-1.067.206-1.46.524-2.04.973-.862.675-1.442 1.517-1.704 2.622-.244 1.03.674 2.285 2.209 2.473 1.292.168 2.94-.525 2.79-2.285-.244-2.529 2.284-2.96 4.55-1.91 4.212 1.947 6.402 4.513 6.402 4.513 1.311 1.46.113 1.554.113 1.554a9.9 9.9 0 0 1 2.153 3.11 7 7 0 0 1 .393 1.161c.019.056.019.112.019.168.262 1.143.43 2.903-.038 5.263m-16.925 10.32q-.038 0-.056.018a.14.14 0 0 1 .056-.019m-1.348-29.63c.019.282.243.525.45.563.392.075.467-.15.935-.169-.093-.075-.187-.169-.318-.262-.056.225-.243.374-.468.337a.466.466 0 0 1-.374-.524v-.02c-.094.02-.131.038-.225.076m.468.076c0 .112.075.187.187.187.094 0 .169-.075.169-.187a.2.2 0 0 0-.019-.094c-.075-.038-.168-.056-.243-.075a.2.2 0 0 0-.094.169m4.082 31.295-.15.58c-1.33 5.132-6.497 5.488-6.497 5.488 3.24.805 6.104-1.03 7.34-2.322 1.853-1.91 1.61-5.057 1.61-5.057-.113-.58-.337-.187-.337-.187-.675 1.18-1.966 1.498-1.966 1.498" clip-rule="evenodd"/></svg>
